svgs/thin/cassette-tape.svg

<svg xmlns="http://www.w3.org/2000/svg" viewBox="0 0 576 512"><!-- Font Awesome Pro 6.0.0-alpha2 by @fontawesome - https://fontawesome.com License - https://fontawesome.com/license (Commercial License) --><path d="M512 32H64C28.656 32 0 60.654 0 96V416C0 451.346 28.656 480 64 480H512C547.344 480 576 451.346 576 416V96C576 60.654 547.344 32 512 32ZM124.553 464L145.422 385.766C148.203 375.312 157.719 368 168.562 368H407.438C418.281 368 427.797 375.312 430.578 385.766L451.447 464H124.553ZM560 416C560 442.467 538.469 464 512 464H468.016L446.047 381.641C441.391 364.188 425.516 352 407.438 352H168.562C150.484 352 134.609 364.188 129.953 381.641L107.984 464H64C37.531 464 16 442.467 16 416V96C16 69.533 37.531 48 64 48H512C538.469 48 560 69.533 560 96V416ZM416 160H160C124.654 160 96 188.652 96 224C96 259.346 124.654 288 160 288H416C451.346 288 480 259.346 480 224C480 188.652 451.346 160 416 160ZM160 272C133.533 272 112 250.467 112 224S133.533 176 160 176S208 197.533 208 224S186.467 272 160 272ZM201.926 272C215.346 260.27 224 243.225 224 224S215.346 187.73 201.928 176H374.072C360.654 187.73 352 204.775 352 224S360.654 260.27 374.074 272H201.926ZM416 272C389.533 272 368 250.467 368 224S389.533 176 416 176S464 197.533 464 224S442.467 272 416 272Z"/></svg>

<svg xmlns="http://www.w3.org/2000/svg" viewBox="0 0 576 512"><!--! Font Awesome Pro 6.3.0 by @fontawesome - https://fontawesome.com License - https://fontawesome.com/license (Commercial License) Copyright 2023 Fonticons, Inc. --><path d="M512 32H64C28.66 32 0 60.65 0 96v320c0 35.35 28.66 64 64 64h448c35.34 0 64-28.65 64-64V96C576 60.65 547.3 32 512 32zM124.6 464l20.87-78.23C148.2 375.3 157.7 368 168.6 368h238.9c10.84 0 20.36 7.312 23.14 17.77L451.4 464H124.6zM560 416c0 26.47-21.53 48-48 48h-43.98l-21.97-82.36C441.4 364.2 425.5 352 407.4 352H168.6c-18.08 0-33.95 12.19-38.61 29.64L107.1 464H64c-26.47 0-48-21.53-48-48V96c0-26.47 21.53-48 48-48h448c26.47 0 48 21.53 48 48V416zM416 160H160C124.7 160 96 188.7 96 224c0 35.35 28.65 64 64 64h256c35.35 0 64-28.65 64-64C480 188.7 451.3 160 416 160zM160 272C133.5 272 112 250.5 112 224S133.5 176 160 176S208 197.5 208 224S186.5 272 160 272zM201.9 272C215.3 260.3 224 243.2 224 224S215.3 187.7 201.9 176h172.1C360.7 187.7 352 204.8 352 224s8.654 36.27 22.07 48H201.9zM416 272c-26.47 0-48-21.53-48-48s21.53-48 48-48s48 21.53 48 48S442.5 272 416 272z"/></svg>
